apps/nuxt3-ssr/assets/minified-icons/Trash.svg

<svg viewBox="0 0 24 24" fill="none" xmlns="http://www.w3.org/2000/svg"><path d="M6.525 21C6.10833 21 5.75417 20.8542 5.4625 20.5625C5.17083 20.2708 5.025 19.9167 5.025 19.5V5.25H4V3.75H8.7V3H15.3V3.75H20V5.25H18.975V19.5C18.975 19.9 18.825 20.25 18.525 20.55C18.225 20.85 17.875 21 17.475 21H6.525ZM17.475 5.25H6.525V19.5H17.475V5.25ZM9.175 17.35H10.675V7.375H9.175V17.35ZM13.325 17.35H14.825V7.375H13.325V17.35ZM6.525 5.25V19.5V5.25Z" fill="currentColor"/></svg>

<svg fill="none" xmlns="http://www.w3.org/2000/svg" viewBox="0 0 24 24"><path d="M6.525 21c-.417 0-.77-.146-1.063-.438a1.447 1.447 0 0 1-.437-1.062V5.25H4v-1.5h4.7V3h6.6v.75H20v1.5h-1.025V19.5c0 .4-.15.75-.45 1.05-.3.3-.65.45-1.05.45H6.525Zm10.95-15.75H6.525V19.5h10.95V5.25Zm-8.3 12.1h1.5V7.375h-1.5v9.975Zm4.15 0h1.5V7.375h-1.5v9.975Zm-6.8-12.1V19.5 5.25Z" fill="currentColor"/></svg>
